X: 1
T:U.S. Army March
M:C|
L:1/8
Q:80
C:
S:March
K:HP
[| {g}ec|
{gef}e2{g}ec|
{gef}e2{g}ec|  !
{g}e3/2f/2{g}ec|
{gef}e2cd|
{g}ed2{e}B|  !
{g}ed2{e}B|
{g}A4|
{GAG}A2:|  !
e{A}e|
a2{GdG}a2|
e3{A}e|  !
{g}f3/2g/2af|
{g}e4|
a{g}a2g|  !
{a}f3/2g/2af|
{gf}g4|
{f}g2e{A}e|  !
a2{GdG}a2|
g3{f}g|
{a}f3/2g/2af|  !
{g}e2{g}cd|
{g}ed2{e}B|
{g}ed2{e}B|  !
{g}A4|
{GAG}A2|]
